assets/branding-images/lilyrosen-cursor.svg

<svg width="16" height="16" viewBox="0 0 16 16" fill="none" xmlns="http://www.w3.org/2000/svg">
<path d="M16 7.97923C16 7.08048 15.5042 6.4574 14.5606 6.32901C14.8714 6.03446 15.0305 5.60396 15.0305 5.05641C15.0305 4.04815 14.4052 3.38353 13.2174 3.38353C13.0509 3.38353 12.8955 3.39863 12.7512 3.42506C12.8363 3.20604 12.8844 2.94926 12.8844 2.66226C12.8844 1.654 12.259 0.989379 11.0712 0.989379C10.5236 0.989379 10.0981 1.1291 9.79464 1.37833C9.67993 0.540005 9.06938 0 8.0037 0C8.0037 0 8.0037 0 8 0C7.9963 0 8 0 7.9963 0C6.93062 0 6.32007 0.536229 6.20537 1.37833C5.90194 1.13288 5.47641 0.989379 4.92877 0.989379C3.74468 0.989379 3.11563 1.654 3.11563 2.66226C3.11563 2.94926 3.16004 3.20604 3.24884 3.42506C3.10453 3.39863 2.94912 3.38353 2.78261 3.38353C1.59852 3.38353 0.969474 4.04815 0.969474 5.05641C0.969474 5.60396 1.12859 6.03446 1.43941 6.32901C0.495838 6.4574 0 7.08048 0 7.97923C0 8.94218 0.492138 9.54638 1.43941 9.67099C1.12859 9.96554 0.969474 10.396 0.969474 10.9436C0.969474 11.9519 1.59482 12.6165 2.78261 12.6165C2.94912 12.6165 3.10453 12.6014 3.24884 12.5749C3.16374 12.794 3.11563 13.0507 3.11563 13.3377C3.11563 14.346 3.74098 15.0106 4.92877 15.0106C5.47641 15.0106 5.90194 14.8709 6.20537 14.6217C6.32007 15.46 6.93062 16 7.9963 16C7.9963 16 7.9963 16 8 16C8.0037 16 8 16 8.0037 16C9.06938 16 9.67993 15.4638 9.79464 14.6217C10.0981 14.8671 10.5236 15.0106 11.0712 15.0106C12.2553 15.0106 12.8844 14.346 12.8844 13.3377C12.8844 13.0507 12.84 12.794 12.7512 12.5749C12.8955 12.6014 13.0509 12.6165 13.2174 12.6165C14.4015 12.6165 15.0305 11.9519 15.0305 10.9436C15.0305 10.396 14.8714 9.96554 14.5606 9.67099C15.5079 9.55015 16 8.94595 16 7.97923Z" fill="#FAEFEC"/>
</svg>

<?xml version="1.0" encoding="UTF-8"?>
<svg id="Layer_2" data-name="Layer 2" xmlns="http://www.w3.org/2000/svg" viewBox="0 0 16 16">
  <defs>
    <style>
      .cls-1 {
        fill: #f5ded9;
      }
    </style>
  </defs>
  <g id="artwork">
    <path class="cls-1" d="M16,7.98c0-.9-.5-1.52-1.44-1.65.31-.29.47-.73.47-1.27,0-1.01-.63-1.67-1.81-1.67-.17,0-.32.02-.47.04.09-.22.13-.48.13-.76,0-1.01-.63-1.67-1.81-1.67-.55,0-.97.14-1.28.39-.11-.84-.73-1.38-1.79-1.38h0c-1.07,0-1.68.54-1.79,1.38-.3-.25-.73-.39-1.28-.39-1.18,0-1.81.66-1.81,1.67,0,.29.04.54.13.76-.14-.03-.3-.04-.47-.04-1.18,0-1.81.66-1.81,1.67,0,.55.16.98.47,1.27-.94.13-1.44.75-1.44,1.65,0,.96.49,1.57,1.44,1.69-.31.29-.47.73-.47,1.27,0,1.01.63,1.67,1.81,1.67.17,0,.32-.02.47-.04-.09.22-.13.48-.13.76,0,1.01.63,1.67,1.81,1.67.55,0,.97-.14,1.28-.39.11.84.73,1.38,1.79,1.38h0c1.07,0,1.68-.54,1.79-1.38.3.25.73.39,1.28.39,1.18,0,1.81-.66,1.81-1.67,0-.29-.04-.54-.13-.76.14.03.3.04.47.04,1.18,0,1.81-.66,1.81-1.67,0-.55-.16-.98-.47-1.27.95-.12,1.44-.73,1.44-1.69Z"/>
  </g>
</svg>
